X: 10142
M: C
L: 1/8
K: G
V: 1 staves=2
dgfe dcBA | G2G>G G2dB |\
dgfe dcBA | G2G>G G2 :| \
|: Bc |\
d2d>d dgfe |
d2d>d d2Bc |\
dBGB dBGB | cAFA cAFA |\
dgfe dcBA | G2G>G G2 :|
V: 2
z2 |\
z4 z2D2 | G2G>G GBAc |\
z4 z2D2 | G2G>G GBAc |\
|: GA |\


